X:464
T:Hennigan's
T:Hennigan's Favourite
R:jig
D:Beginish
Z:hn-jig-464
M:6/8
L:1/8
K:A
ceA ceA | aga fed | ceA ceA | Bcd Bcd |
ceA ceA | aga fed | cde aec |1 ABA Aed :|2 ABA A2B ||
|: cee fee | aee fed | cde aec | BcB BAB |
cee fee | aee fed | cde aec | ABA A2B :|

